brandFactory_export/3.Masa/Movil interrogacion_3Masa.svg

<?xml version="1.0" encoding="UTF-8"?>
<svg width="24px" height="24px" viewBox="0 0 24 24" version="1.1" xmlns="http://www.w3.org/2000/svg" xmlns:xlink="http://www.w3.org/1999/xlink">
    <title>3.Masa/Movil interrogacion_3Masa</title>
    <g id="Symbols" stroke="none" stroke-width="1" fill="none" fill-rule="evenodd">
        <g id="3.Masa/Movil-interrogacion_3Masa" fill="#5CB615" fill-rule="nonzero">
            <path d="M6.58823529,15.1462185 C7.07563025,15.1462185 7.40840336,15.4789916 7.40840336,15.9361345 C7.40840336,16.4403361 7.0789916,16.7630252 6.60840336,16.7630252 C6.11428571,16.7630252 5.78823529,16.4436975 5.78823529,15.9831933 L5.78823529,15.9394958 C5.79159664,15.4789916 6.12436975,15.1462185 6.58823529,15.1462185 Z M8.57815126,8.14453782 C9.12605042,8.54117647 9.38151261,9.08907563 9.38151261,9.86554622 C9.38151261,10.789916 8.98487395,11.3546218 8.14789916,12.3394958 C7.21344538,13.4117647 7.21344538,13.4117647 7.21344538,14.3495798 C7.21344538,14.6151261 6.99495798,14.8302521 6.72605042,14.8302521 L6.41344538,14.8302521 C6.18151261,14.8302521 5.97983193,14.6689076 5.93613445,14.4403361 C5.9092437,14.2991597 5.89243697,14.1546218 5.89243697,13.9563025 C5.89243697,13.1394958 6.18823529,12.6420168 6.81344538,11.8991597 L6.93109244,11.7613445 C7.92941176,10.5882353 8.06386555,10.3159664 8.06386555,9.85210084 C8.06386555,9.52268908 7.97983193,9.32773109 7.76134454,9.15630252 C7.63697479,9.05546218 7.40504202,8.94117647 6.7394958,8.94117647 C6.35966387,8.94117647 6.02016807,8.98487395 5.61344538,9.08907563 C5.48571429,9.11932773 5.34789916,9.09915966 5.23361345,9.02857143 C5.11932773,8.95798319 5.04201681,8.84369748 5.01512605,8.71260504 L4.96806723,8.47394958 C4.92773109,8.25546218 5.03865546,8.04033613 5.24033613,7.94621849 C5.57647059,7.79159664 6.28235294,7.67053678 6.88067227,7.67053678 C7.58655462,7.66722689 8.15798319,7.82857143 8.57815126,8.14453782 L8.57815126,8.14453782 Z M7.14285714,17.6 C10.9983193,17.6 12.8,15.8252101 12.8,12.0067227 C12.8,8.18823529 10.9983193,6.41344538 7.14285714,6.41344538 C3.29747899,6.41344538 1.49579832,8.18823529 1.49579832,12.0067227 C1.49579832,15.8252101 3.29747899,17.6 7.14285714,17.6 Z M22.507563,1.18319328 C23.287395,1.94621849 23.6571429,3.02521008 23.6571429,4.4605042 L23.6571429,19.2201681 C23.6571429,20.6857143 23.2773109,21.7680672 22.497479,22.5277311 C21.7277311,23.2806723 20.6453782,23.6571429 19.1865546,23.6571429 L11.7378151,23.6571429 C10.2756303,23.6571429 9.19663866,23.2806723 8.41680672,22.5277311 C7.72436975,21.8420168 7.35462185,20.9176471 7.27731092,19.7008403 L7.27731092,19.0453782 L7.1394958,19.0453782 C2.65210084,19.0453782 0.0302521008,16.7966387 0.0302521008,12.0033613 C0.0302521008,7.21008403 2.65210084,4.96134454 7.1394958,4.96134454 L7.26722689,4.96134454 L7.26722689,4.45714286 C7.26722689,3.03865546 7.63697479,1.9697479 8.41680672,1.19663866 C9.19327731,0.416806723 10.2756303,0.0268907563 11.7378151,0.0268907563 L19.1865546,0.0268907563 C20.6487395,0.0336134454 21.7378151,0.410084034 22.507563,1.18319328 Z M15.4588235,17.7915966 C14.6689076,17.7915966 14.2016807,18.2554622 14.2016807,19.0453782 C14.2016807,19.4285714 14.3092437,19.7378151 14.5243697,19.9495798 C14.7495798,20.1815126 15.0689076,20.2957983 15.4588235,20.2957983 C15.8487395,20.2957983 16.1680672,20.1815126 16.3932773,19.9495798 C16.6151261,19.7378151 16.7226891,19.4285714 16.7226891,19.0453782 C16.7226891,18.2554622 16.2554622,17.7915966 15.4588235,17.7915966 L15.4588235,17.7915966 Z" id="Movil-interrogacion_3Masa"></path>
        </g>
    </g>
</svg>

<svg width="24" height="24" viewBox="0 0 24 24" xmlns="http://www.w3.org/2000/svg"><path d="M6.588 15.146c.488 0 .82.333.82.79 0 .504-.329.827-.8.827-.494 0-.82-.32-.82-.78v-.044a.772.772 0 01.8-.793zm1.99-7.001c.548.396.804.944.804 1.72 0 .925-.397 1.49-1.234 2.474-.935 1.073-.935 1.073-.935 2.01 0 .266-.218.481-.487.481h-.313a.483.483 0 01-.477-.39 2.455 2.455 0 01-.044-.484c0-.817.296-1.314.921-2.057l.118-.138c.998-1.173 1.133-1.445 1.133-1.909 0-.33-.084-.524-.303-.696-.124-.1-.356-.215-1.022-.215-.38 0-.719.044-1.126.148a.504.504 0 01-.38-.06.483.483 0 01-.218-.316l-.047-.24a.483.483 0 01.272-.527c.336-.154 1.042-.275 1.64-.275.707-.004 1.278.158 1.698.474zM7.143 17.6c3.855 0 5.657-1.775 5.657-5.593 0-3.819-1.802-5.594-5.657-5.594-3.846 0-5.647 1.775-5.647 5.594 0 3.818 1.801 5.593 5.647 5.593zM22.508 1.183c.78.763 1.15 1.842 1.15 3.278v14.76c0 1.465-.38 2.547-1.16 3.307-.77.753-1.853 1.13-3.311 1.13h-7.45c-1.461 0-2.54-.377-3.32-1.13-.693-.686-1.062-1.61-1.14-2.827v-.656H7.14c-4.487 0-7.109-2.248-7.109-7.042 0-4.793 2.622-7.042 7.11-7.042h.127v-.504c0-1.418.37-2.487 1.15-3.26.776-.78 1.859-1.17 3.32-1.17h7.45c1.462.007 2.55.383 3.32 1.156zm-7.05 16.609c-.79 0-1.256.463-1.256 1.253 0 .384.107.693.322.905.226.232.545.346.935.346s.71-.114.934-.346c.222-.212.33-.521.33-.905 0-.79-.468-1.253-1.264-1.253z" fill="#5CB615" fill-rule="nonzero"/></svg>
